eleme.svg

<svg viewBox="0 0 24 24" xmlns="http://www.w3.org/2000/svg"><path d="M5.45124 1.93092C-0.0564834 5.58073-1.61094 12.9778 1.96181 18.5359C3.65535 21.1994 6.3462 23.0727 9.43202 23.7364C12.5178 24.4001 15.7409 23.7987 18.3798 22.0668C18.6994 21.8575 19.0044 21.6356 19.2947 21.4012L19.2947 21.4012C19.5555 21.187 19.6151 20.8117 19.4337 20.5271L19.4337 20.5271L18.884 19.6697C18.6405 19.2872 18.2544 19.0177 17.8114 18.921C17.3685 18.8242 16.9052 18.9082 16.5244 19.1543L16.514 19.1607L16.5044 19.1679C14.6272 20.3942 12.3372 20.8181 10.1454 20.3449C7.95366 19.8717 6.04249 18.5409 4.83837 16.6493C2.29705 12.6972 3.40032 7.43671 7.31541 4.83865C10.3952 2.81356 14.4371 3.04065 17.2707 5.39798C17.3191 5.43976 17.3613 5.48819 17.3962 5.54181C17.5926 5.84844 17.5069 6.25599 17.2036 6.45751L10.1344 11.0992C9.33949 11.6262 9.11525 12.694 9.63105 13.4963L10.2095 14.396C10.3029 14.5429 10.4513 14.6462 10.6214 14.6828C10.7916 14.7194 10.9693 14.6864 11.1149 14.591L22.2104 7.3045C22.4899 7.11998 22.5885 6.75636 22.4405 6.45591C22.4405 6.44712 22.4317 6.43833 22.4269 6.42954C22.2581 6.103 22.0716 5.78178 21.8676 5.4659C20.1746 2.80229 17.4843 0.928639 14.3989 0.26425C11.3135-0.400139 8.09051 0.200202 5.45124 1.93092ZM22.0114 11.6465L19.7893 13.1056C19.4859 13.3071 19.4002 13.7146 19.5967 14.0213L21.0398 16.2682C21.1332 16.415 21.2816 16.5183 21.4517 16.555C21.6218 16.5916 21.7995 16.5585 21.9451 16.4631L23.0566 15.7336C23.9746 15.1248 24.2337 13.8917 23.6383 12.9649L22.9192 11.8415C22.8255 11.6942 22.6765 11.5907 22.5057 11.5545C22.335 11.5183 22.1568 11.5523 22.0114 11.6489L22.0114 11.6465Z" fill="#1890ff"/></svg>

<svg viewBox="0 0 24 24" xmlns="http://www.w3.org/2000/svg"><path d="M5.451 1.93C-.056 5.58-1.61 12.979 1.961 18.537A11.79 11.79 0 0 0 19.296 21.4c.26-.214.32-.59.139-.874l-.55-.857a1.702 1.702 0 0 0-2.36-.516l-.01.007-.01.007a8.39 8.39 0 0 1-11.666-2.519A8.595 8.595 0 0 1 7.315 4.84a8.373 8.373 0 0 1 9.956.559.667.667 0 0 1-.067 1.06l-7.07 4.641a1.744 1.744 0 0 0-.503 2.397l.579.9a.65.65 0 0 0 .905.195L22.21 7.305a.665.665 0 0 0 .23-.85c0-.008-.008-.017-.013-.025a11.567 11.567 0 0 0-.56-.964A11.79 11.79 0 0 0 5.452 1.93Zm16.56 9.716-2.222 1.46a.667.667 0 0 0-.192.915l1.443 2.247a.651.651 0 0 0 .905.195l1.112-.73a2.015 2.015 0 0 0 .581-2.768l-.719-1.123a.65.65 0 0 0-.908-.193v-.002Z" fill="#1890ff"/></svg>
